!!!COM: Palestrina, Giovanni Perluigi da
!!!OPR: Dum esset summus pontifex
!!!OTL: Sanctus
**kern	**kern	**kern	**kern
*Ibass	*Itenor	*Icalto	*Icant
!Bassus	!Tenor	!Altus	!Cantus
*clefF4	*clefGv2	*clefG2	*clefG2
*k[]	*k[]	*k[]	*k[]
*A:aeo	*A:aeo	*A:aeo	*A:aeo
*M4/2	*M4/2	*M4/2	*M4/2
=1	=1	=1	=1
0r	0r	1d	0r
.	.	1c	.
=2	=2	=2	=2
0r	1d	2d	0r
.	.	2.f	.
.	1c	.	.
.	.	4e	.
.	.	[2e	.
=3	=3	=3	=3
0r	2d	4e]	0a
.	.	4d	.
.	1f	1d	.
.	2e	2c	.
=4	=4	=4	=4
0r	2d	2f	1a
.	2c	2e	.
.	1B	1d	1g
=5	=5	=5	=5
1A	2A	2.e	1cc
.	1c	.	.
.	.	8d	.
.	.	8c	.
1G	.	1g	1dd
.	2B	.	.
=6	=6	=6	=6
2A	2c	1e	1cc
1c	2A	.	.
.	1G	2r	1dd
2B	.	2g	.
=7	=7	=7	=7
2A	2r	2cc	1ee
2G	1e	2b	.
1F	.	1a	1r
.	2d	.	.
=8	=8	=8	=8
2E	2e	2g	1r
2C	1g	2e	.
1D	.	2.d	1a
.	2f	.	.
.	.	4c	.
=9	=9	=9	=9
1E	2.e	1B	1g
.	4d	.	.
2r	2.c	1A	2a
[2A	.	.	[2cc
.	4B	.	.
=10	=10	=10	=10
2A]	2A	1e	2cc]
2G	2B	.	2b
2F	1c	1r	2a
2E	.	.	2g
=11	=11	=11	=11
1D	2.d	1a	1f
.	4c	.	.
1E	1B	1g	2e
.	.	.	[2ee
=12	=12	=12	=12
2r	1A	2a	4ee]
.	.	.	4dd
1A	.	1cc	4cc
.	.	.	4b
.	2r	.	2a
2G	2d	2b	2b
=13	=13	=13	=13
2F	2f	2a	1cc
2C	2.e	2g	.
1D	.	1f	[1a
.	4d	.	.
.	2d	.	.
=14	=14	=14	=14
0A	2c#	2e	0a]
.	2.e	2.c	.
.	4e	4c	.
.	2e	2c	.
=15	=15	=15	=15
0r	2f	2d	2r
.	2e	2c	2.a
.	2c	2e	.
.	.	.	4a
.	2d	2f	2a
=16	=16	=16	=16
0r	[0e	2.g	2cc
.	.	.	2b
.	.	4a	.
.	.	2b	2g
.	.	[2a	2a
=17	=17	=17	=17
1r	1e]	2a]	2b
.	.	2g	2.ee
2r	2.A	2.cc	.
.	.	.	4ee
[2A	.	.	2ee
.	4B	4b	.
=18	=18	=18	=18
4A]	1c	1a	2ff
4A	.	.	.
2A	.	.	2ee
2B-	2d	1r	2dd
2A	2e	.	4cc
.	.	.	4b
=19	=19	=19	=19
2F	2f	1r	2a
2G	2.e	.	2b
2.A	.	2r	2.cc
.	4c	.	.
.	2f	2a	.
4B	.	.	4dd
=20	=20	=20	=20
2c	2e	4a	2ee
.	.	4a	.
2d	1d	2a	2ff
2G	.	2b-	2gg
2A	2c	2a	[2ff
=21	=21	=21	=21
1B-	1d	2f	4ff]
.	.	.	4ee
.	.	2g	1dd
[1A	2r	1a	.
.	[2e	.	4cc#
.	.	.	4b
=22	=22	=22	=22
0A]	4e]	2r	1cc#
.	4e	.	.
.	2e	2.a	.
.	2f	.	2r
.	.	4a	.
.	2e	2a	[2ee
=23	=23	=23	=23
1r	2c	2cc	4ee]
.	.	.	4ee
.	2d	2b	2dd
2r	1e	2.g	2cc
[2E	.	.	2b
.	.	4a	.
=24	=24	=24	=24
4E]	1e	1b	4g
4E	.	.	4a
2E	.	.	4b
.	.	.	4g
2F	2d	2r	4a
.	.	.	4b
2E	[2e	[2g	[2cc
=25	=25	=25	=25
2C	2e]	2g]	2cc]
2D	4d	2f	4b
.	4c	.	4a
[1E	2B	1e	2g
.	2c	.	[2a
=26	=26	=26	=26
1E]	1B	2r	2a]
.	.	2e	2g#
2r	1A	2e	2a
2A	.	2e	2cc
=27	=27	=27	=27
2A	0r	1a	2cc
2A	.	.	2cc
1d	.	2a	1ff
.	.	2b	.
=28	=28	=28	=28
2c	2r	2.cc	1ee
2A	2e	.	.
.	.	4b	.
2.c	2e	2a	1r
.	2e	2g	.
4B	.	.	.
=29	=29	=29	=29
2A	0a	2f	0r
2G	.	1e	.
1F	.	.	.
.	.	2d	.
=30	=30	=30	=30
1E	2g	2e	1r
.	2e	2c	.
1D	2.f	4d	1a
.	.	4c	.
.	.	4d	.
.	4e	4e	.
=31	=31	=31	=31
0r	2d	4f	2a
.	.	4g	.
.	2c	1a	2a
.	1B	.	1dd
.	.	2g#	.
=32	=32	=32	=32
1r	2A	0a	2cc
.	2.f	.	2a
2r	.	.	2.cc
.	4f	.	.
[2F	2c	.	.
.	.	.	4b
=33	=33	=33	=33
4F]	2d	0r	2a
4F	.	.	.
2C	2.e	.	2g
1D	.	.	1f
.	4d	.	.
.	2d	.	.
=34	=34	=34	=34
2.A	2c	2r	2e
.	1f	2.cc	2a
4B	.	.	.
1c	.	.	1g
.	.	4cc	.
.	2e	2g	.
=35	=35	=35	=35
1F	1f	2.a	2f
.	.	.	2.ff
.	.	4g	.
2r	[1a	[1f	.
.	.	.	4ff
[2F	.	.	2cc
=36	=36	=36	=36
4F]	2a]	2f]	2dd
4F	.	.	.
2C	2g	2e	2.ee
1D	1f	2r	.
.	.	.	4dd
.	.	2a	[2dd
=37	=37	=37	=37
1A	1e	2a	2dd]
.	.	2e	2cc#
2r	1d	4f	2dd
.	.	4e	.
2d	.	4d	2ff
.	.	4e	.
=38	=38	=38	=38
2d	0r	4f	2ff
.	.	4g	.
2A	.	2a	2cc
2B	.	1g	2dd
2c	.	.	2ee
=39	=39	=39	=39
1F	2r	1.a	2.ff
.	2f	.	.
.	.	.	4ee
2F	2f	.	4dd
.	.	.	4cc
2A	2c	2f	[2cc
=40	=40	=40	=40
1G	2d	1g	2cc]
.	2e	.	2b
2F	2.f	2r	2a
4D	.	2a	4f
4E	4e	.	4g
=41	=41	=41	=41
4F	2d	2a	4a
4G	.	.	4b
2A	2c	2e	2cc
1D	2.d	2f	2b
.	.	2f	[2a
.	4c	.	.
=42	=42	=42	=42
1E	1B	1e	2a]
.	.	.	2g#
[1A	[1c#	[1e	[1a
=43	=43	=43	=43
1A]	1c#]	1e]	1a]
==	==	==	==
*-	*-	*-	*-
!!!CDT: 1525/^1526/-1594/2/2
!!!OCY: Italia
!!!AGN: Mass (Paraphrase)
!!!AST: renaissance, vocal
!!!ASW: Antiphon
!!!PWK: Masses, Book 8
!!!RNB: Cadence finals: D
!!!YOR: Le Opere Complete, v. 24, p. 32
!!!YOO: Rome, Italy: Fratelli Scalera
!!!END: 1992//
!!!EED: John Miller
!!!YEC: Copyright 2000, John Miller
!!!YEN: United States of America
!!!YEM: Rights to all derivative electronic formats reserved.
!!!YEM: Refer to licensing agreement for further details.
!!!YEM: This file must be accompanied by the licensing agreement.
!!!YEM: A copy of the licensing agreement may be found at http://www.music-cog.ohio-state.edu/HumdrumDatabases/Palestrina/license.txt
!!!EMD: converted to Humdrum by Bret Aarden
